img/faq.svg

<svg width="42" height="42" viewBox="0 0 42 42" fill="none" xmlns="http://www.w3.org/2000/svg"><circle cx="21" cy="21" r="21" fill="url(#paint0_linear)"/><path d="M19.68 24.36c0-.704.208-1.376.624-2.016.432-.64.896-1.152 1.392-1.536.496-.4.952-.864 1.368-1.392.432-.528.648-1.056.648-1.584 0-.56-.192-.992-.576-1.296-.384-.304-.92-.456-1.608-.456-1.344 0-2.296.712-2.856 2.136l-2.832-1.632c.48-1.184 1.24-2.096 2.28-2.736 1.056-.656 2.232-.984 3.528-.984 1.456 0 2.712.424 3.768 1.272 1.072.832 1.608 1.984 1.608 3.456 0 .672-.144 1.296-.432 1.872a5.535 5.535 0 01-1.008 1.488c-.384.4-.776.784-1.176 1.152a8.07 8.07 0 00-1.008 1.104c-.272.384-.408.768-.408 1.152H19.68zm3.096 5.352c-.4.4-.88.6-1.44.6-.56 0-1.04-.2-1.44-.6-.4-.4-.6-.88-.6-1.44 0-.56.2-1.04.6-1.44.4-.4.88-.6 1.44-.6.56 0 1.04.2 1.44.6.4.4.6.88.6 1.44 0 .56-.2 1.04-.6 1.44z" fill="#fff"/><defs><linearGradient id="paint0_linear" x1="0" y1="21.226" x2="43.662" y2="20.639" gradientUnits="userSpaceOnUse"><stop stop-color="#FCAF45"/><stop offset=".198" stop-color="#F77737"/><stop offset=".396" stop-color="#FD1D1D"/><stop offset=".594" stop-color="#C13584"/><stop offset=".797" stop-color="#833AB4"/><stop offset="1" stop-color="#405DE6"/></linearGradient></defs></svg>

<svg width="42" height="42" viewBox="0 0 42 42" fill="none" xmlns="http://www.w3.org/2000/svg">
<circle cx="21" cy="21" r="21" fill="url(#paint0_linear)"/>
<path d="M19.68 24.36C19.68 23.656 19.888 22.984 20.304 22.344C20.736 21.704 21.2 21.192 21.696 20.808C22.192 20.408 22.648 19.944 23.064 19.416C23.496 18.888 23.712 18.36 23.712 17.832C23.712 17.272 23.52 16.84 23.136 16.536C22.752 16.232 22.216 16.08 21.528 16.08C20.184 16.08 19.232 16.792 18.672 18.216L15.84 16.584C16.32 15.4 17.08 14.488 18.12 13.848C19.176 13.192 20.352 12.864 21.648 12.864C23.104 12.864 24.36 13.288 25.416 14.136C26.488 14.968 27.024 16.12 27.024 17.592C27.024 18.264 26.88 18.888 26.592 19.464C26.32 20.04 25.984 20.536 25.584 20.952C25.2 21.352 24.808 21.736 24.408 22.104C24.024 22.456 23.688 22.824 23.4 23.208C23.128 23.592 22.992 23.976 22.992 24.36H19.68ZM22.776 29.712C22.376 30.112 21.896 30.312 21.336 30.312C20.776 30.312 20.296 30.112 19.896 29.712C19.496 29.312 19.296 28.832 19.296 28.272C19.296 27.712 19.496 27.232 19.896 26.832C20.296 26.432 20.776 26.232 21.336 26.232C21.896 26.232 22.376 26.432 22.776 26.832C23.176 27.232 23.376 27.712 23.376 28.272C23.376 28.832 23.176 29.312 22.776 29.712Z" fill="white"/>
<defs>
<linearGradient id="paint0_linear" x1="6.36199e-08" y1="21.2258" x2="43.6616" y2="20.6394" gradientUnits="userSpaceOnUse">
<stop stop-color="#FCAF45"/>
<stop offset="0.197917" stop-color="#F77737"/>
<stop offset="0.395833" stop-color="#FD1D1D"/>
<stop offset="0.59375" stop-color="#C13584"/>
<stop offset="0.796875" stop-color="#833AB4"/>
<stop offset="1" stop-color="#405DE6"/>
</linearGradient>
</defs>
</svg>
